apps/documenteditor/main/resources/img/toolbar/2.5x/big/btn-review-save.svg

<svg xmlns="http://www.w3.org/2000/svg" width="28" height="28" fill="none"><path fill="#000" d="M25 10.2 15.7 23 11 17.2l1.2-1.2 3.5 3.5L23.8 9l1.2 1.2Z"/><path fill="#000" d="M22 5c.6 0 1 .4 1 1v2h-1V6H5v11h5v1H5c-.6 0-1-.4-1-1V6c0-.6.4-1 1-1h17Z"/><path fill="#000" d="M16 13H8v-1h8v1Zm3-3H8V9h11v1Z"/></svg>

<svg width="28" height="28" viewBox="0 0 28 28" fill="none" xmlns="http://www.w3.org/2000/svg">
<path fill-rule="evenodd" clip-rule="evenodd" d="M5 17H10V18H5C4.4 18 4 17.6 4 17V6C4 5.4 4.4 5 5 5H22C22.6 5 23 5.4 23 6V8H22V6H5V17ZM8 9H19V10H8V9ZM16 12H8V13H16V12ZM11 17.2L15.7 23L25 10.2L23.8 9L15.7 19.5L12.2 16L11 17.2Z" fill="black"/>
</svg>
